dist/assets/img/first-screen/background-logo.svg

<svg width="600" height="711" fill="none" xmlns="http://www.w3.org/2000/svg"><g opacity=".07" fill="#0C4AB3"><path d="M129.865 161.724L13.475 262.129v53.652l116.39 119.184V161.724zm0 548.78L-238 355.252h190.801l177.064 181.65v173.602z"/><path d="M129.865 0L-238 355.252l97.309 95.807 270.556-277.457V0zm101.506 548.779L347.76 448.374v-53.652L231.371 275.538v273.241zm0-548.779l367.864 355.252H408.816l-177.445-181.65V0z"/><path d="M231.371 710.501l367.864-355.252-96.926-95.807-270.938 277.457v173.602z"/></g></svg>

<svg width="600" height="711" viewBox="0 0 600 711" fill="none" xmlns="http://www.w3.org/2000/svg">
<g opacity="0.07">
<path d="M129.865 161.724L13.4758 262.129V315.781L129.865 434.965V161.724Z" fill="#0C4AB3"/>
<path d="M129.865 710.504L-238 355.252H-47.1988L129.865 536.902V710.504Z" fill="#0C4AB3"/>
<path d="M129.865 0L-238 355.252L-140.691 451.059L129.865 173.602V0Z" fill="#0C4AB3"/>
<path d="M231.371 548.779L347.76 448.374V394.722L231.371 275.538V548.779Z" fill="#0C4AB3"/>
<path d="M231.371 0L599.235 355.252H408.816L231.371 173.602V0Z" fill="#0C4AB3"/>
<path d="M231.371 710.501L599.235 355.249L502.309 259.442L231.371 536.899V710.501Z" fill="#0C4AB3"/>
</g>
</svg>
